static/logos/chrome-glyph-color.svg

<svg width="32" height="32" viewBox="0 0 32 32" fill="none" xmlns="http://www.w3.org/2000/svg">
<path d="M16.0007 2.00382C16.0007 2.00382 24.2529 1.63483 28.628 9.8999H15.2985C15.2985 9.8999 12.783 9.81911 10.6342 12.8599C10.0169 14.1363 9.35338 15.451 10.098 18.042C9.02535 16.2313 4.4035 8.21234 4.4035 8.21234C4.4035 8.21234 7.6635 2.33057 16.0006 2.00382H16.0007Z" fill="#EF3F36"/>
<path d="M28.1996 22.9856C28.1996 22.9856 24.3917 30.2935 15.0246 29.9321C16.182 27.9369 21.6911 18.4302 21.6911 18.4302C21.6911 18.4302 23.0222 16.3005 21.452 12.9253C20.6533 11.7528 19.8392 10.5265 17.2159 9.87287C19.3263 9.85377 28.6047 9.87287 28.6047 9.87287C28.6047 9.87287 32.0806 15.6278 28.1996 22.9856Z" fill="#FCD900"/>
<path d="M3.85937 23.0434C3.85937 23.0434 -0.588931 16.1045 4.41101 8.20074C5.56459 10.1959 11.0738 19.7027 11.0738 19.7027C11.0738 19.7027 12.2621 21.9171 15.9773 22.2475C17.3933 22.1438 18.867 22.0554 20.7498 20.1217C19.7118 21.9517 15.0551 29.9476 15.0551 29.9476C15.0551 29.9476 8.3114 30.0707 3.85926 23.0434H3.85937Z" fill="#61BC5B"/>
<path d="M15.0208 30.0013L16.8957 22.2053C16.8957 22.2053 18.9559 22.0437 20.6844 20.1563C19.6118 22.0362 15.0208 30.0013 15.0208 30.0013V30.0013Z" fill="#5AB055"/>
<path d="M9.71985 16.089C9.71985 12.6523 12.517 9.86523 15.9659 9.86523C19.4149 9.86523 22.212 12.6523 22.212 16.089C22.212 19.5257 19.4149 22.3127 15.9659 22.3127C12.517 22.3089 9.71985 19.5257 9.71985 16.089V16.089Z" fill="white"/>
<path d="M10.7653 16.0891C10.7653 13.229 13.0918 10.907 15.966 10.907C18.8363 10.907 21.1666 13.2252 21.1666 16.0891C21.1666 18.9492 18.8403 21.2712 15.966 21.2712C13.0956 21.2712 10.7653 18.9492 10.7653 16.0891V16.0891Z" fill="url(#paint0_linear_1261_19)"/>
<path d="M28.6008 9.87685L20.881 12.1334C20.881 12.1334 19.7159 10.4303 17.2121 9.87685C19.3841 9.86528 28.6008 9.87685 28.6008 9.87685V9.87685Z" fill="#EACA05"/>
<path d="M9.94753 17.7577C8.86331 15.8855 4.4035 8.21234 4.4035 8.21234L10.1211 13.848C10.1211 13.848 9.53459 15.0513 9.75459 16.7735L9.94742 17.7577H9.94753Z" fill="#DF3A32"/>
<defs>
<linearGradient id="paint0_linear_1261_19" x1="15.9657" y1="10.9802" x2="15.9657" y2="20.9592" gradientUnits="userSpaceOnUse">
<stop stop-color="#86BBE5"/>
<stop offset="1" stop-color="#1072BA"/>
</linearGradient>
</defs>
</svg>

<svg xmlns="http://www.w3.org/2000/svg" width="64" height="64" fill="none" viewBox="0 0 32 32"><path fill="#EF3F36" d="M16 2.004s8.253-.37 12.628 7.896h-13.33s-2.515-.08-4.664 2.96c-.617 1.276-1.28 2.591-.536 5.182-1.073-1.81-5.695-9.83-5.695-9.83s3.26-5.881 11.598-6.208"/><path fill="#FCD900" d="M28.2 22.986s-3.808 7.308-13.175 6.946L21.69 18.43s1.331-2.13-.239-5.505c-.799-1.172-1.613-2.399-4.236-3.052 2.11-.02 11.389 0 11.389 0s3.476 5.755-.405 13.113"/><path fill="#61BC5B" d="M3.86 23.043S-.59 16.105 4.41 8.201c1.154 1.995 6.663 11.502 6.663 11.502s1.188 2.214 4.903 2.544c1.416-.103 2.89-.192 4.773-2.125-1.038 1.83-5.695 9.826-5.695 9.826s-6.744.123-11.196-6.905"/><path fill="#5AB055" d="m15.02 30.001 1.876-7.796s2.06-.161 3.788-2.049c-1.072 1.88-5.663 9.845-5.663 9.845"/><path fill="#fff" d="M9.72 16.089c0-3.437 2.797-6.224 6.246-6.224s6.246 2.787 6.246 6.224-2.797 6.224-6.246 6.224c-3.449-.004-6.246-2.787-6.246-6.224"/><path fill="url(#a)" d="M10.765 16.09c0-2.861 2.327-5.183 5.201-5.183 2.87 0 5.2 2.318 5.2 5.182 0 2.86-2.326 5.182-5.2 5.182-2.87 0-5.2-2.322-5.2-5.182"/><path fill="#EACA05" d="m28.6 9.877-7.719 2.256s-1.165-1.703-3.669-2.256c2.172-.012 11.389 0 11.389 0"/><path fill="#DF3A32" d="M9.948 17.758c-1.085-1.872-5.544-9.546-5.544-9.546l5.717 5.636s-.586 1.203-.366 2.925z"/><defs><linearGradient id="a" x1="15.966" x2="15.966" y1="10.98" y2="20.959" gradientUnits="userSpaceOnUse"><stop stop-color="#86BBE5"/><stop offset="1" stop-color="#1072BA"/></linearGradient></defs></svg>
